public/piece/anarcandy/wQ.svg

<svg xmlns="http://www.w3.org/2000/svg" width="512" height="512" fill="none"><path fill="#00173C" d="M256.562 123.54c-101.106 0-183.36 74.844-183.36 166.836 0 40.362 3.058 86.159 39.556 118.871 13.972 12.521 35.31 19.674 52.454 25.424 2.184.733 4.286 1.439 6.267 2.121 1.045.361 1.52.525 2.846 7.779 1.421 7.772 3.366 18.415 13.814 27.921 3.798 3.453 15.352 13.969 68.972 14.508h.275c53.62-.539 65.175-11.053 68.973-14.508 10.445-9.507 12.393-20.149 13.814-27.921 1.326-7.254 1.804-7.418 2.849-7.779 1.981-.682 4.079-1.385 6.263-2.121 17.145-5.75 38.483-12.903 52.451-25.424 36.502-32.709 39.56-78.51 39.56-118.871-.007-91.994-82.876-166.836-184.735-166.836h.001Z"/><path fill="#FF9CAE" d="M388.395 396.046c-10.568 9.459-29.846 15.916-45.342 21.107-2.347.785-4.602 1.539-6.725 2.272-15.401 5.301-17.689 17.806-19.204 26.081-1.149 6.287-2.142 11.719-7.173 16.288-.874.794-9.789 7.759-53.618 8.213-43.828-.457-52.743-7.419-53.617-8.213-5.027-4.569-6.021-10.001-7.174-16.288-1.513-8.275-3.802-20.78-19.203-26.081-2.126-.733-4.381-1.487-6.728-2.272-15.493-5.19-34.775-11.648-45.343-21.107-27.832-24.916-33.428-59.3-33.428-106.7 0-82.578 73.917-149.757 164.777-149.757 91.644 0 166.205 67.179 166.205 149.757.003 47.401-5.592 81.787-33.425 106.7h-.002Z"/><path fill="#810F23" d="M333.108 322.169c-24.678 0-43.289 15.966-43.289 37.136 0 21.173 18.611 37.139 43.289 37.139 23.464 0 43.29-19.07 43.29-41.638 0-20.131-16.587-32.637-43.29-32.637ZM181.391 322.17c-26.702 0-43.29 12.506-43.29 32.637 0 22.57 19.826 41.637 43.29 41.637 24.678 0 43.29-15.966 43.29-37.138 0-21.171-18.611-37.136-43.29-37.136ZM256.614 372.258c5.727-.253 10.864 3.057 12.488 8.035l13.228 40.511c1.949 5.959-1.784 12.224-8.333 13.993-1.172.319-2.36.471-3.526.471-4.463 0-8.641-2.216-10.818-5.803-2.515 4.132-7.734 6.527-13.12 5.604-6.712-1.153-11.123-7.04-9.856-13.147l8.415-40.515c1.061-5.103 5.822-8.884 11.522-9.149Z"/><path fill="#00173C" d="M293 61.5c0 14.11-7.792 26.4-19.309 32.8 5.346 158.176 40.545 92.092 65.296 14.684C331.614 102.136 327 92.357 327 81.5c0-20.71 16.789-37.5 37.5-37.5S402 60.79 402 81.5c0 17.31-11.727 31.88-27.67 36.198-27.452 123.493 12.949 118.191 48.367 58.682A37.326 37.326 0 0 1 417 156.5c0-20.711 16.789-37.5 37.5-37.5s37.5 16.789 37.5 37.5c0 20.628-16.656 37.367-37.254 37.499-8.658 33.496-12.713 81.098-13.746 105.501 0-12.469-82.38-22.577-184-22.577S73 287.031 73 299.5c-1.55-24.406-6.522-72.014-15.57-105.511-.309.007-.619.011-.93.011-20.71 0-37.5-16.789-37.5-37.5S35.79 119 56.5 119 94 135.789 94 156.5a37.322 37.322 0 0 1-5.82 20.075c33.717 63.177 73.583 71.681 51.35-58.222C122.15 115.087 109 99.829 109 81.5c0-20.71 16.789-37.5 37.5-37.5S184 60.79 184 81.5a37.347 37.347 0 0 1-8.927 24.287c24.178 77.119 59.108 145.002 64.669-10.249C226.904 89.585 218 76.582 218 61.5c0-20.71 16.789-37.5 37.5-37.5S293 40.79 293 61.5Z"/><path fill="#66B6FF" d="M255.5 80c10.217 0 18.5-8.283 18.5-18.5S265.717 43 255.5 43 237 51.283 237 61.5 245.283 80 255.5 80ZM364.5 100c10.217 0 18.5-8.283 18.5-18.5S374.717 63 364.5 63 346 71.283 346 81.5s8.283 18.5 18.5 18.5ZM56.5 175c10.217 0 18.5-8.283 18.5-18.5S66.717 138 56.5 138 38 146.283 38 156.5 46.283 175 56.5 175ZM473 156.5c0 10.217-8.283 18.5-18.5 18.5s-18.5-8.283-18.5-18.5 8.283-18.5 18.5-18.5 18.5 8.283 18.5 18.5ZM146.5 100c10.217 0 18.5-8.283 18.5-18.5S156.717 63 146.5 63 128 71.283 128 81.5s8.283 18.5 18.5 18.5ZM424.988 268.927c2.177-24.984 6.094-55.893 12.419-80.534-8.846 14.833-18.446 27.37-28.069 36.049-5.428 4.895-11.529 9.169-18.084 11.551-6.645 2.415-14.815 3.213-22.872-.871-16.379-8.3-20.505-29.499-21.043-46.969-.57-18.495 2.392-43.04 9.214-74.089-6.262 19.785-13.365 39.479-20.723 55.496-3.919 8.531-8.157 16.563-12.663 23.154-4.176 6.109-10.079 13.24-17.842 16.827-4.237 1.958-9.355 3.001-14.879 1.784-5.53-1.218-10.055-4.391-13.532-8.211-6.385-7.013-10.102-17.109-12.616-27.032-3.517-13.877-6.046-47.321-7.57-72.828-1.52 24.898-4.011 57.902-7.467 71.476-2.478 9.733-6.162 19.746-12.549 26.683-3.489 3.789-8.032 6.917-13.572 8.064-5.522 1.143-10.604.023-14.775-1.967-7.641-3.645-13.431-10.75-17.519-16.808-4.416-6.542-8.567-14.499-12.405-22.941-7.701-16.938-14.018-32.821-20.441-53.697 6.216 35.086 6.918 58.32 5.601 78.284-.658 9.973-2.271 19.278-5.419 27.17-3.213 8.054-8.549 15.803-16.871 19.818-8.31 4.01-16.613 2.855-23.269.061-6.527-2.74-12.489-7.419-17.717-12.648-8.362-8.364-16.614-19.923-24.282-33.446 5.91 23.813 9.952 52.428 12.416 75.76 9.86-2.428 22.321-4.507 36.536-6.252 34.105-4.184 80.768-6.728 132.005-6.728 51.237 0 97.9 2.544 132.005 6.728 13.951 1.712 26.212 3.746 35.983 6.116Z"/></svg>

<svg width="512" height="512" viewBox="0 0 512 512" fill="none" xmlns="http://www.w3.org/2000/svg">
<path d="M256.562 123.54C155.456 123.54 73.2019 198.384 73.2019 290.376C73.2019 330.738 76.2601 376.535 112.758 409.247C126.73 421.768 148.068 428.921 165.212 434.671C167.396 435.404 169.498 436.11 171.479 436.792C172.524 437.153 172.999 437.317 174.325 444.571C175.746 452.343 177.691 462.986 188.139 472.492C191.937 475.945 203.491 486.461 257.111 487H257.249H257.386C311.006 486.461 322.561 475.947 326.359 472.492C336.804 462.985 338.752 452.343 340.173 444.571C341.499 437.317 341.977 437.153 343.022 436.792C345.003 436.11 347.101 435.407 349.285 434.671C366.43 428.921 387.768 421.768 401.736 409.247C438.238 376.538 441.296 330.737 441.296 290.376C441.289 198.382 358.42 123.54 256.561 123.54H256.562Z" fill="#00173C"/>
<path d="M388.395 396.046C377.827 405.505 358.549 411.962 343.053 417.153C340.706 417.938 338.451 418.692 336.328 419.425C320.927 424.726 318.639 437.231 317.124 445.506C315.975 451.793 314.982 457.225 309.951 461.794C309.077 462.588 300.162 469.553 256.333 470.007C212.505 469.55 203.59 462.588 202.716 461.794C197.689 457.225 196.695 451.793 195.542 445.506C194.029 437.231 191.74 424.726 176.339 419.425C174.213 418.692 171.958 417.938 169.611 417.153C154.118 411.963 134.836 405.505 124.268 396.046C96.4356 371.13 90.8403 336.746 90.8403 289.346C90.8403 206.768 164.757 139.589 255.617 139.589C347.261 139.589 421.822 206.768 421.822 289.346C421.825 336.747 416.23 371.133 388.397 396.046H388.395Z" fill="#FF9CAE"/>
<path d="M333.108 322.169C308.43 322.169 289.819 338.135 289.819 359.305C289.819 380.478 308.43 396.444 333.108 396.444C356.572 396.444 376.398 377.374 376.398 354.806C376.398 334.675 359.811 322.169 333.108 322.169Z" fill="#810F23"/>
<path d="M181.391 322.17C154.689 322.17 138.101 334.676 138.101 354.807C138.101 377.377 157.927 396.444 181.391 396.444C206.069 396.444 224.681 380.478 224.681 359.306C224.681 338.135 206.07 322.17 181.391 322.17Z" fill="#810F23"/>
<path d="M256.614 372.258C262.341 372.005 267.478 375.315 269.102 380.293L282.33 420.804C284.279 426.763 280.546 433.028 273.997 434.797C272.825 435.116 271.637 435.268 270.471 435.268C266.008 435.268 261.83 433.052 259.653 429.465C257.138 433.597 251.919 435.992 246.533 435.069C239.821 433.916 235.41 428.029 236.677 421.922L245.092 381.407C246.153 376.304 250.914 372.523 256.614 372.258Z" fill="#810F23"/>
<path d="M293 61.5C293 75.6096 285.208 87.8993 273.691 94.2999C279.037 252.476 314.236 186.392 338.987 108.984C331.614 102.136 327 92.3567 327 81.5C327 60.7893 343.789 44 364.5 44C385.211 44 402 60.7893 402 81.5C402 98.8093 390.273 113.38 374.33 117.698C346.878 241.191 387.279 235.889 422.697 176.38C419.087 170.617 417 163.802 417 156.5C417 135.789 433.789 119 454.5 119C475.211 119 492 135.789 492 156.5C492 177.128 475.344 193.867 454.746 193.999C446.088 227.495 442.033 275.097 441 299.5C441 287.031 358.62 276.923 257 276.923C155.38 276.923 73 287.031 73 299.5C71.4502 275.094 66.4776 227.486 57.4308 193.989C57.1214 193.996 56.8111 194 56.5 194C35.7893 194 19 177.211 19 156.5C19 135.789 35.7893 119 56.5 119C77.2107 119 94 135.789 94 156.5C94 163.885 91.8654 170.771 88.1795 176.575C121.897 239.752 161.763 248.256 139.53 118.353C122.15 115.087 109 99.8289 109 81.5C109 60.7893 125.789 44 146.5 44C167.211 44 184 60.7893 184 81.5C184 90.7642 180.641 99.2438 175.073 105.787C199.251 182.906 234.181 250.789 239.742 95.5381C226.904 89.5847 218 76.5821 218 61.5C218 40.7893 234.789 24 255.5 24C276.211 24 293 40.7893 293 61.5Z" fill="#00173C"/>
<path d="M255.5 80C265.717 80 274 71.7173 274 61.5C274 51.2827 265.717 43 255.5 43C245.283 43 237 51.2827 237 61.5C237 71.7173 245.283 80 255.5 80Z" fill="#66B6FF"/>
<path d="M364.5 100C374.717 100 383 91.7173 383 81.5C383 71.2827 374.717 63 364.5 63C354.283 63 346 71.2827 346 81.5C346 91.7173 354.283 100 364.5 100Z" fill="#66B6FF"/>
<path d="M56.5 175C66.7173 175 75 166.717 75 156.5C75 146.283 66.7173 138 56.5 138C46.2827 138 38 146.283 38 156.5C38 166.717 46.2827 175 56.5 175Z" fill="#66B6FF"/>
<path d="M473 156.5C473 166.717 464.717 175 454.5 175C444.283 175 436 166.717 436 156.5C436 146.283 444.283 138 454.5 138C464.717 138 473 146.283 473 156.5Z" fill="#66B6FF"/>
<path d="M146.5 100C156.717 100 165 91.7173 165 81.5C165 71.2827 156.717 63 146.5 63C136.283 63 128 71.2827 128 81.5C128 91.7173 136.283 100 146.5 100Z" fill="#66B6FF"/>
<path d="M424.988 268.927C427.165 243.943 431.082 213.034 437.407 188.393C428.561 203.226 418.961 215.763 409.338 224.442C403.91 229.337 397.809 233.611 391.254 235.993C384.609 238.408 376.439 239.206 368.382 235.122C352.003 226.822 347.877 205.623 347.339 188.153C346.769 169.658 349.731 145.113 356.553 114.064C350.291 133.849 343.188 153.543 335.83 169.56C331.911 178.091 327.673 186.123 323.167 192.714C318.991 198.823 313.088 205.954 305.325 209.541C301.088 211.499 295.97 212.542 290.446 211.325C284.916 210.107 280.391 206.934 276.914 203.114C270.529 196.101 266.812 186.005 264.298 176.082C260.781 162.205 258.252 128.761 256.728 103.254C255.208 128.152 252.717 161.156 249.261 174.73C246.783 184.463 243.099 194.476 236.712 201.413C233.223 205.202 228.68 208.33 223.14 209.477C217.618 210.62 212.536 209.5 208.365 207.51C200.724 203.865 194.934 196.76 190.846 190.702C186.43 184.16 182.279 176.203 178.441 167.761C170.74 150.823 164.423 134.94 158 114.064C164.216 149.15 164.918 172.384 163.601 192.348C162.943 202.321 161.33 211.626 158.182 219.518C154.969 227.572 149.633 235.321 141.311 239.336C133.001 243.346 124.698 242.191 118.042 239.397C111.515 236.657 105.553 231.978 100.325 226.749C91.9629 218.385 83.7111 206.826 76.0425 193.303C81.9534 217.116 85.9954 245.731 88.4586 269.063C98.3188 266.635 110.78 264.556 124.995 262.811C159.1 258.627 205.763 256.083 257 256.083C308.237 256.083 354.9 258.627 389.005 262.811C402.956 264.523 415.217 266.557 424.988 268.927Z" fill="#66B6FF"/>
</svg>
